X:1
T:Loch Ruan
M:C
L:1/8
Q:80
C:G. McIntyre
S:March 4/4
K:HP
A2 | \
{Gdc}d2{g}Aa{fg}f2{gef}ed | \
{gef}e2{g}f{gf}g{BG}B2{gef}e3/2d/2 | \
{gcd}c2{gBd}B{e}A{gf}g2{ef}ec |
{Gdc}d2{gef}ef{AGAG}A2{g}A3/2B/2 | | \
{Gdc}d2{g}Aa{fg}f2{gef}ed | \
{gef}e2{g}f{gf}g{BG}B2{gef}e3/2d/2 |
{gcd}c2{gBd}B{e}A{gf}g2{ef}ec | \
{Gdc}d2-d2{gdc}d2|]
{g}f3/2g/2 |
{ag}a2{fg}fd{g}Aa{fg}fd | \
{gef}e2{g}f{gf}g{BG}B2{g}e3/2f/2 | \
{gf}g2{ef}ec{g}Ag{ef}ec |
{Gdc}d2{gef}ef{AGAG}A2{g}f3/2g/2 | | \
{ag}a2{fg}fd{g}Aa{fg}fd | \
{gef}e2{g}f{gf}g{BG}B2{gef}e3/2d/2 |
{gcd}c2{gBd}B{e}A{gf}g2{ef}ec | \
{Gdc}d2-d2{gdc}d2|]
